; generated by PrusaSlicer 2.8.1+win64 on 2025-01-30 at 14:24:57 UTC

; 

; external perimeters extrusion width = 0.42mm
; perimeters extrusion width = 0.44mm
; infill extrusion width = 0.44mm
; solid infill extrusion width = 0.44mm
; top infill extrusion width = 0.40mm
; first layer extrusion width = 0.42mm

; external perimeters extrusion width = 0.42mm
; perimeters extrusion width = 0.44mm
; infill extrusion width = 0.44mm
; solid infill extrusion width = 0.44mm
; top infill extrusion width = 0.40mm
; first layer extrusion width = 0.42mm

; external perimeters extrusion width = 0.42mm
; perimeters extrusion width = 0.44mm
; infill extrusion width = 0.44mm
; solid infill extrusion width = 0.44mm
; top infill extrusion width = 0.40mm
; first layer extrusion width = 0.42mm

M201 X500 Y500 Z100 E5000 ; sets maximum accelerations, mm/sec^2
M203 X500 Y500 Z10 E60 ; sets maximum feedrates, mm / sec
M204 S500 T1000 ; sets acceleration (S) and retract acceleration (R), mm/sec^2
M205 X8.00 Y8.00 Z0.40 E5.00 ; sets the jerk limits, mm/sec
M205 S0 T0 ; sets the minimum extruding and travel feed rate, mm/sec

; printing object Halter.stl id:0 copy 0
; stop printing object Halter.stl id:0 copy 0
; printing object Gehäuse.stl id:1 copy 0
; stop printing object Gehäuse.stl id:1 copy 0
; printing object Deckel.stl id:2 copy 0
; stop printing object Deckel.stl id:2 copy 0

;TYPE:Custom
; === MCI PRUSA Profil v1.0 ===

G90 ; use absolute coordinates
M83 ; extruder relative mode

; Set temporary nozzle temp to prevent oozing during homing and auto bed leveling
M104 S150 
M140 S60 ; set final bed temp
G4 S30 ; allow partial nozzle warmup

G28             ; home all axes

; Set final nozzle temp
M104 S219 
; Wait for bed temp to stabilize
M190 S60
; Wait for nozzle temp to stabilize
M109 S219

M9000 M9000 N0.4 T219 B60 S100 R1


G29             ; auto bed leveling
M500            ; save bed level

G1 Z50 F240
G1 X2.0 Y10 F3000

G1 Z0.28 F240
G92 E0
G1 X2.0 Y140 E10 F1500   ; prime the nozzle
G1 X2.3 Y140 F5000
G92 E0
G1 X2.3 Y10 E10 F1200    ; prime the nozzle
G92 E0
G21 ; set units to millimeters
G90 ; use absolute coordinates
M83 ; use relative distances for extrusion
; Filament gcode
M107
;LAYER_CHANGE
;Z:0.32
;HEIGHT:0.32
G1 E-1 F3600
G1 Z.82 F9000
G1 X124.211 Y88.267
G1 Z.32
G1 E1 F2400
M204 S500
;TYPE:Skirt/Brim
;WIDTH:0.42
G1 F1200
G1 X126.064 Y85.936 E.13918
G1 X128.87 Y84.778 E.14188
G1 X160.531 Y84.788 E1.47986
G1 X162.495 Y85.58 E.09898
G1 X163.911 Y86.815 E.08782
G1 X165.174 Y89.778 E.15055
G1 X165.331 Y148.343 E2.73738
G1 X164.899 Y150.107 E.08489
G1 X163.047 Y152.433 E.13897
G1 X160.251 Y153.59 E.14143
G1 X129.184 Y153.673 E1.4521
G1 X127.42 Y153.241 E.08489
G1 X125.093 Y151.389 E.13901
G1 X123.937 Y148.593 E.14142
G1 X123.781 Y90.027 E2.73743
G1 X124.196 Y88.325 E.08188
G1 X124.196 Y88.325 F9000
G1 X124.511 Y88.452
G1 F1200
G1 X126.241 Y86.242 E.13118
G1 X128.905 Y85.13 E.13493
G1 X160.496 Y85.139 E1.47659
G1 X162.333 Y85.894 E.09283
G1 X163.649 Y87.052 E.08193
G1 X164.823 Y89.814 E.14028
G1 X164.979 Y148.322 E2.73472
G1 X164.567 Y149.985 E.08008
G1 X162.802 Y152.178 E.13158
G1 X160.216 Y153.238 E.13063
G1 X129.205 Y153.321 E1.44948
G1 X127.542 Y152.909 E.08008
G1 X125.349 Y151.144 E.13158
G1 X124.288 Y148.558 E.13065
G1 X124.132 Y90.047 E2.73486
G1 X124.497 Y88.511 E.07379
G1 X124.497 Y88.511 F9000
G1 X124.838 Y88.593
G1 F1200
G1 X124.843 Y88.572 E.00101
G1 X126.488 Y86.496 E.1238
G1 X128.939 Y85.481 E.124
G1 X160.461 Y85.49 E1.47336
G1 X162.17 Y86.206 E.08661
G1 X163.386 Y87.288 E.07608
G1 X164.472 Y89.85 E.13006
G1 X164.628 Y148.301 E2.73206
G1 X164.236 Y149.862 E.07523
G1 X162.626 Y151.871 E.12034
G1 X160.18 Y152.887 E.1238
G1 X129.226 Y152.97 E1.44682
G1 X127.665 Y152.578 E.07523
G1 X125.656 Y150.968 E.12034
G1 X124.64 Y148.522 E.1238
G1 X124.484 Y90.067 E2.73224
G1 X124.824 Y88.651 E.06807
G1 X124.824 Y88.651 F9000
G1 X125.165 Y88.734
G1 F1200
G1 X125.175 Y88.694 E.00193
G1 X126.734 Y86.751 E.11644
G1 X128.973 Y85.832 E.11313
G1 X160.424 Y85.842 E1.47004
G1 X162.004 Y86.517 E.08031
G1 X163.122 Y87.523 E.0703
G1 X164.12 Y89.886 E.1199
G1 X164.276 Y148.281 E2.72944
G1 X163.936 Y149.676 E.06711
G1 X162.448 Y151.565 E.1124
G1 X160.144 Y152.536 E.11686
G1 X129.246 Y152.618 E1.4442
G1 X127.851 Y152.278 E.06711
G1 X125.962 Y150.79 E.1124
G1 X124.991 Y148.486 E.11686
G1 X124.835 Y90.088 E2.72958
G1 X125.151 Y88.793 E.06231
G1 X125.151 Y88.793 F9000
G1 X125.492 Y88.877
G1 F1200
G1 X125.507 Y88.815 E.00298
G1 X126.91 Y87.058 E.10509
G1 X129.009 Y86.184 E.10627
G1 X160.387 Y86.193 E1.46663
G1 X161.836 Y86.827 E.07393
G1 X162.856 Y87.756 E.06449
G1 X163.769 Y89.922 E.10987
G1 X163.925 Y148.26 E2.72677
G1 X163.604 Y149.553 E.06227
G1 X162.201 Y151.311 E.10513
G1 X160.109 Y152.185 E.10597
G1 X129.267 Y152.267 E1.44158
G1 X127.973 Y151.946 E.06232
G1 X126.216 Y150.543 E.10509
G1 X125.342 Y148.451 E.10597
G1 X125.186 Y90.109 E2.72696
G1 X125.477 Y88.935 E.05653
G1 X125.477 Y88.935 F9000
G1 X125.817 Y89.021
G1 F1200
G1 X125.838 Y88.939 E.00396
G1 X127.155 Y87.314 E.09777
G1 X129.043 Y86.535 E.09546
G1 X160.349 Y86.544 E1.46327
G1 X161.665 Y87.135 E.06743
G1 X162.59 Y87.988 E.05881
G1 X163.418 Y89.957 E.09984
G1 X163.574 Y148.239 E2.72416
G1 X163.273 Y149.43 E.05742
G1 X161.957 Y151.055 E.09774
G1 X160.074 Y151.833 E.09523
G1 X129.288 Y151.916 E1.43897
G1 X128.097 Y151.615 E.05742
G1 X126.472 Y150.299 E.09774
G1 X125.693 Y148.416 E.09525
G1 X125.538 Y90.13 E2.72434
G1 X125.803 Y89.079 E.05066
G1 X125.803 Y89.079 F9000
G1 X126.142 Y89.166
G1 F1200
G1 X126.169 Y89.063 E.00498
G1 X127.332 Y87.62 E.08663
G1 X129.078 Y86.886 E.08853
G1 X160.31 Y86.895 E1.45981
G1 X161.491 Y87.441 E.06081
G1 X162.323 Y88.219 E.05324
G1 X163.067 Y89.993 E.08992
G1 X163.222 Y148.217 E2.72145
G1 X162.943 Y149.306 E.05254
G1 X161.78 Y150.749 E.08663
G1 X160.037 Y151.482 E.08838
G1 X129.31 Y151.564 E1.43621
G1 X128.221 Y151.285 E.05254
G1 X126.778 Y150.122 E.08663
G1 X126.045 Y148.38 E.08834
G1 X125.889 Y90.152 E2.72163
G1 X126.127 Y89.225 E.04473
G1 X126.127 Y89.225 F9000
G1 X126.466 Y89.313
G1 F1200
G1 X126.498 Y89.19 E.00594
G1 X127.575 Y87.877 E.07938
G1 X129.113 Y87.238 E.07785
G1 X160.269 Y87.247 E1.45626
G1 X161.313 Y87.745 E.05406
G1 X162.054 Y88.448 E.04774
G1 X162.715 Y90.029 E.0801
G1 X162.871 Y148.195 E2.71873
G1 X162.613 Y149.179 E.04755
G1 X161.536 Y150.492 E.07938
G1 X160.002 Y151.131 E.07767
G1 X129.332 Y151.213 E1.43355
G1 X128.348 Y150.955 E.04755
G1 X127.035 Y149.878 E.07938
G1 X126.396 Y148.344 E.07767
G1 X126.24 Y90.174 E2.71892
G1 X126.451 Y89.371 E.03881
G1 X126.451 Y89.371 F9000
G1 X126.789 Y89.462
G1 F1200
G1 X126.828 Y89.317 E.00702
G1 X127.753 Y88.183 E.0684
G1 X129.149 Y87.589 E.07091
G1 X160.227 Y87.598 E1.45261
G1 X161.784 Y88.675 E.08849
G1 X162.364 Y90.064 E.07036
G1 X162.519 Y148.172 E2.71602
G1 X162.283 Y149.052 E.04259
G1 X161.359 Y150.186 E.06837
G1 X159.965 Y150.78 E.07083
G1 X129.355 Y150.861 E1.43074
G1 X128.475 Y150.626 E.04257
G1 X127.341 Y149.701 E.0684
G1 X126.747 Y148.307 E.07083
G1 X126.592 Y90.197 E2.71612
G1 X126.773 Y89.52 E.03275
G1 X126.773 Y89.52 F9000
G1 X127.111 Y89.613
G1 F1200
G1 X127.156 Y89.448 E.00799
G1 X127.995 Y88.44 E.0613
G1 X129.183 Y87.94 E.06025
G1 X160.183 Y87.949 E1.44896
G1 X161.513 Y88.901 E.07645
G1 X162.013 Y90.1 E.06072
G1 X162.168 Y148.148 E2.71322
G1 X161.955 Y148.921 E.03748
G1 X161.117 Y149.928 E.06123
G1 X159.93 Y150.428 E.0602
G1 X129.378 Y150.51 E1.42803
G1 X128.606 Y150.297 E.03743
G1 X127.598 Y149.459 E.06127
G1 X127.098 Y148.272 E.0602
G1 X126.943 Y90.221 E2.71336
G1 X127.095 Y89.671 E.02667
G1 X127.095 Y89.671 F9000
G1 X127.431 Y89.766
G1 F1200
G1 X127.484 Y89.579 E.00908
G1 X128.173 Y88.745 E.05056
G1 X129.22 Y88.292 E.05332
G1 X160.136 Y88.301 E1.44504
G1 X161.24 Y89.125 E.06439
G1 X161.662 Y90.135 E.05116
G1 X161.817 Y148.124 E2.71046
G1 X161.628 Y148.79 E.03236
G1 X160.938 Y149.624 E.05059
G1 X159.892 Y150.077 E.05328
G1 X129.403 Y150.159 E1.42509
G1 X128.737 Y149.97 E.03236
G1 X127.903 Y149.28 E.05059
G1 X127.45 Y148.234 E.05328
G1 X127.295 Y90.245 E2.71046
G1 X127.414 Y89.824 E.02045
G1 X127.414 Y89.824 F9000
G1 X127.748 Y89.922
G1 F1200
G1 X127.809 Y89.716 E.01004
G1 X128.413 Y89.005 E.04361
G1 X129.256 Y88.643 E.04288
G1 X160.009 Y88.631 E1.43742
G1 X160.968 Y89.35 E.05602
G1 X161.31 Y90.171 E.04157
G1 X161.465 Y148.099 E2.70761
G1 X161.302 Y148.653 E.02699
G1 X160.698 Y149.364 E.04361
G1 X159.856 Y149.726 E.04284
G1 X129.428 Y149.807 E1.42223
G1 X128.874 Y149.644 E.02699
G1 X128.162 Y149.04 E.04364
G1 X127.801 Y148.198 E.04282
G1 X127.646 Y90.27 E2.70761
G1 X127.732 Y89.98 E.01414
G1 X127.732 Y89.98 F9000
G1 X128.133 Y89.98
G1 F1200
G1 X128.133 Y89.857 E.00575
G1 X128.65 Y89.267 E.03667
G1 X129.291 Y88.994 E.03256
G1 X159.886 Y88.962 E1.43004
G1 X160.294 Y89.175 E.02151
G1 X160.959 Y90.206 E.05734
G1 X160.978 Y148.512 E2.72527
G1 X160.461 Y149.102 E.03667
G1 X159.82 Y149.375 E.03256
G1 X129.015 Y149.32 E1.43985
G1 X128.425 Y148.803 E.03667
G1 X128.152 Y148.162 E.03256
G1 X128.133 Y90.04 E2.71667
G1 X128.133 Y90.04 F9000
G1 X128.454 Y90.039
G1 F1200
G1 X128.454 Y90.004 E.00164
G1 X129.327 Y89.345 E.05113
G1 X159.767 Y89.295 E1.42279
G1 X160.608 Y90.242 E.0592
G1 X160.657 Y148.365 E2.71672
G1 X159.785 Y149.024 E.05109
G1 X129.162 Y148.999 E1.43134
G1 X128.503 Y148.127 E.05109
G1 X128.454 Y90.099 E2.71228
G1 X128.454 Y90.099 F9000
G1 X128.77 Y90.16
G1 F1200
G1 X129.362 Y89.697 E.03513
G1 X159.843 Y89.717 E1.42471
G1 X160.257 Y90.277 E.03255
G1 X160.341 Y148.209 E2.70779
G1 X159.75 Y148.672 E.03509
G1 X129.318 Y148.683 E1.42242
G1 X128.854 Y148.092 E.03512
G1 X128.77 Y90.22 E2.70499
G1 X128.77 Y90.22 F9000
G1 X129.078 Y90.331
G1 F1200
G1 X129.397 Y90.048 E.01993
G1 X159.558 Y89.967 E1.40975
G1 X159.906 Y90.313 E.02294
G1 X160.033 Y148.038 E2.69812
G1 X159.714 Y148.321 E.01993
G1 X129.489 Y148.375 E1.41274
G1 X129.206 Y148.056 E.01993
G1 X129.078 Y90.391 E2.69531
G1 X129.078 Y90.391 F9000
G1 X129.403 Y90.502
G1 F1200
G1 X159.555 Y90.422 E1.40933
G1 X159.708 Y147.867 E2.68503
G1 X129.66 Y148.05 E1.40449
G1 X129.404 Y90.562 E2.68706
G1 E-.7 F3600
;WIPE_START
G1 F7200
G1 X129.403 Y90.502 E-.0285
G1 X129.975 Y90.5 E-.2715
;WIPE_END
G1 Z.82 F9000
G1 X129.219 Y76.748
G1 Z.32
G1 E1 F2400
G1 F1200
G1 X113.445 Y76.959 E.73736
G1 X110.727 Y75.896 E.13641
G1 X109.359 Y74.518 E.09076
G1 X108.553 Y72.923 E.08353
G1 X108.4 Y64.743 E.38241
G1 X109.405 Y62.427 E.118
G1 X110.755 Y61.102 E.08841
G1 X112.379 Y60.29 E.08487
G1 X131.242 Y60.313 E.88167
G1 X132.817 Y61.135 E.08304
G1 X133.98 Y62.221 E.07437
G1 X135.214 Y65.187 E.15015
G1 X135.081 Y72.49 E.3414
G1 X134.111 Y74.606 E.1088
G1 X132.773 Y75.914 E.08746
G1 X131.168 Y76.722 E.08399
G1 X129.279 Y76.748 E.0883
G1 X129.279 Y76.748 F9000
G1 X129.275 Y76.396
G1 F1200
G1 X113.475 Y76.607 E.73857
G1 X110.891 Y75.583 E.12992
G1 X109.658 Y74.333 E.08207
G1 X108.904 Y72.875 E.07672
G1 X108.752 Y64.775 E.37867
G1 X109.712 Y62.601 E.11108
G1 X110.94 Y61.402 E.08022
G1 X112.421 Y60.641 E.07783
G1 X131.197 Y60.665 E.87761
G1 X132.63 Y61.433 E.07599
G1 X133.712 Y62.451 E.06944
G1 X134.862 Y65.217 E.14001
G1 X134.747 Y72.377 E.33471
G1 X133.805 Y74.43 E.10558
G1 X132.588 Y75.614 E.07936
G1 X131.121 Y76.372 E.07718
G1 X129.335 Y76.396 E.08349
G1 X129.335 Y76.396 F9000
G1 X129.33 Y76.044
G1 F1200
G1 X113.506 Y76.255 E.73969
G1 X111.056 Y75.271 E.12341
G1 X109.956 Y74.146 E.07354
G1 X109.254 Y72.826 E.06988
G1 X109.104 Y64.808 E.37483
G1 X110.018 Y62.776 E.10414
G1 X111.127 Y61.701 E.07219
G1 X112.465 Y60.992 E.07078
G1 X131.151 Y61.016 E.8734
G1 X132.439 Y61.728 E.06879
G1 X133.444 Y62.68 E.0647
G1 X134.51 Y65.248 E.12996
G1 X134.396 Y72.333 E.3312
G1 X133.501 Y74.251 E.09893
G1 X132.401 Y75.316 E.07156
G1 X131.073 Y76.021 E.07028
G1 X129.39 Y76.043 E.07867
G1 X129.39 Y76.043 F9000
G1 X129.385 Y75.692
G1 F1200
G1 X113.537 Y75.904 E.74081
G1 X111.224 Y74.96 E.11677
G1 X110.252 Y73.956 E.06532
G1 X109.605 Y72.775 E.06294
G1 X109.456 Y64.842 E.37086
G1 X110.323 Y62.953 E.09715
G1 X111.316 Y61.997 E.06443
G1 X112.51 Y61.344 E.06361
G1 X131.103 Y61.367 E.86905
G1 X132.245 Y62.022 E.06153
G1 X133.174 Y62.909 E.06004
G1 X134.158 Y65.278 E.1199
G1 X134.045 Y72.289 E.32774
G1 X133.198 Y74.071 E.09222
G1 X132.211 Y75.02 E.064
G1 X131.024 Y75.67 E.06326
G1 X129.445 Y75.691 E.07381
G1 X129.445 Y75.691 F9000
G1 X129.441 Y75.34
G1 F1200
G1 X113.568 Y75.552 E.74198
G1 X111.393 Y74.65 E.11006
G1 X109.955 Y72.723 E.11238
G1 X109.808 Y64.876 E.36684
G1 X110.627 Y63.133 E.09001
G1 X112.557 Y61.695 E.1125
G1 X130.97 Y61.695 E.86064
G1 X132.018 Y62.291 E.05635
G1 X132.905 Y63.137 E.05729
G1 X133.806 Y65.309 E.10991
G1 X133.695 Y72.244 E.32419
G1 X132.896 Y73.888 E.08544
G1 X130.974 Y75.32 E.11203
G1 X129.501 Y75.339 E.06885
G1 X129.501 Y75.339 F9000
G1 X129.497 Y75.008
G1 F1200
G1 X113.6 Y75.2 E.74309
G1 X111.621 Y74.381 E.10011
G1 X110.282 Y72.588 E.1046
G1 X110.144 Y64.987 E.35534
G1 X110.894 Y63.363 E.08361
G1 X112.691 Y62.023 E.10477
G1 X130.836 Y62.023 E.84811
G1 X132.636 Y63.365 E.10494
G1 X133.455 Y65.34 E.09994
G1 X133.361 Y72.128 E.31731
G1 X132.629 Y73.658 E.07928
G1 X130.839 Y74.992 E.10434
G1 X129.557 Y75.008 E.05993
G1 X129.557 Y75.008 F9000
G1 X129.553 Y74.677
G1 F1200
G1 X113.632 Y74.848 E.7442
G1 X111.849 Y74.111 E.09018
G1 X110.61 Y72.454 E.09671
G1 X110.48 Y65.096 E.34397
G1 X111.162 Y63.592 E.07719
G1 X112.824 Y62.352 E.09692
G1 X130.704 Y62.352 E.83573
G1 X131.598 Y62.854 E.04792
G1 X132.366 Y63.593 E.04982
G1 X133.103 Y65.372 E.09
G1 X133.027 Y72.013 E.31043
G1 X132.362 Y73.427 E.07304
G1 X130.706 Y74.664 E.09661
G1 X129.613 Y74.676 E.05109
G1 X129.61 Y74.345 F9000
G1 F1200
G1 X113.664 Y74.497 E.74536
G1 X112.075 Y73.84 E.08037
G1 X110.938 Y72.32 E.08872
G1 X110.816 Y65.203 E.3327
G1 X111.432 Y63.82 E.07076
G1 X112.956 Y62.68 E.08896
G1 X130.571 Y62.68 E.82334
G1 X132.095 Y63.82 E.08896
G1 X132.751 Y65.404 E.08014
G1 X132.692 Y71.901 E.30369
G1 X132.093 Y73.199 E.06682
G1 X130.573 Y74.336 E.08872
G1 X129.67 Y74.345 E.04221
G1 X129.67 Y74.345 F9000
G1 X129.667 Y74.014
G1 F1200
G1 X113.696 Y74.145 E.74652
G1 X112.3 Y73.568 E.0706
G1 X111.265 Y72.186 E.0807
G1 X111.154 Y65.308 E.32152
G1 X111.703 Y64.046 E.06433
G1 X113.089 Y63.008 E.08094
G1 X130.438 Y63.008 E.81091
G1 X131.212 Y63.444 E.04152
G1 X131.823 Y64.045 E.04006
G1 X132.4 Y65.437 E.07043
G1 X132.357 Y71.791 E.297
G1 X131.823 Y72.972 E.06058
G1 X130.439 Y74.008 E.08081
G1 X129.727 Y74.014 E.03328
G1 X129.727 Y74.014 F9000
G1 X129.725 Y73.683
G1 F1200
G1 X113.729 Y73.794 E.74768
G1 X112.526 Y73.296 E.06086
G1 X111.594 Y72.055 E.07254
G1 X111.491 Y65.411 E.31058
G1 X111.975 Y64.271 E.05789
G1 X113.22 Y63.337 E.07275
G1 X130.308 Y63.337 E.79871
G1 X131.552 Y64.27 E.07268
G1 X132.049 Y65.471 E.06075
G1 X132.021 Y71.683 E.29036
G1 X131.552 Y72.746 E.05431
G1 X130.308 Y73.679 E.07268
G1 X129.785 Y73.683 E.02445
G1 X129.785 Y73.683 F9000
G1 X129.783 Y73.353
G1 F1200
G1 X113.762 Y73.442 E.74885
G1 X112.749 Y73.023 E.05124
G1 X111.922 Y71.922 E.06436
G1 X111.83 Y65.511 E.29969
G1 X112.249 Y64.494 E.05141
G1 X113.351 Y63.666 E.06443
G1 X130.177 Y63.666 E.78646
G1 X130.791 Y64.006 E.03281
G1 X131.278 Y64.494 E.03222
G1 X131.697 Y65.505 E.05115
G1 X131.684 Y71.579 E.2839
G1 X131.279 Y72.522 E.04797
G1 X130.177 Y73.35 E.06443
G1 X129.843 Y73.352 E.01561
G1 X129.843 Y73.352 F9000
G1 X129.842 Y73.022
G1 F1200
G1 X113.796 Y73.091 E.75001
G1 X112.973 Y72.75 E.04164
G1 X112.252 Y71.794 E.05597
G1 X112.181 Y65.543 E.2922
G1 X112.522 Y64.718 E.04173
G1 X113.478 Y63.996 E.056
G1 X130.049 Y63.996 E.77454
G1 X131.006 Y64.718 E.05603
G1 X131.346 Y65.54 E.04158
G1 X131.346 Y71.477 E.2775
G1 X131.006 Y72.299 E.04158
G1 X130.049 Y73.021 E.05603
G1 X129.902 Y73.021 E.00687
G1 X129.902 Y73.021 F9000
G1 X129.901 Y72.69
G1 F1200
G1 X113.83 Y72.739 E.75117
G1 X113.197 Y72.477 E.03202
G1 X112.582 Y71.669 E.04746
G1 X112.533 Y65.575 E.28485
G1 X112.795 Y64.942 E.03202
G1 X113.603 Y64.327 E.04746
G1 X129.925 Y64.327 E.7629
G1 X130.332 Y64.541 E.02149
G1 X130.995 Y65.574 E.05737
G1 X130.995 Y71.443 E.27432
